X: 32762
T: Polska From Enviken
R: three-two
M: 3/2
K: Gminor
[K:Gmin] A2|:B2cB A2G^F G2Bc|d2ed c2Bc d3d|g2gg d2dd B2BB|1 ABA^F G4G2 A2:|2 ABA^F G4G2 [K:Gmaj] Bc:|
|:d2d2 e2e2 f2f2|g2 (3gag f2 (3fgf e2 (3efe|d2d2 e2e2 f2fa|gagB d4d2 Bc|
d2d2 b2b2 a2a2|e3e abaf gage|c2cd efed cdcB|ABAF G2Bc d2 Bc|
d2d2 b2b2 a2a2|e3e abaf gage|c2cd efed cdcA|1 F2AF G4G2 Bc:|2 F2AF G4G2 [K:Gmin] A2:|

